X:1
T:Title
%%score ( 1 2 ) ( 3 4 )
L:1/8
M:4/4
K:D
V:1 treble nm="Grand Piano, Unnamed-000"
V:2 treble 
V:3 bass nm="Choir Pad, Unnamed-001"
V:4 bass 
V:1
 [DF]2 [DF]2 [DF]>[DE] [DF]>[EG] | [FA]4 [DF]4 | [EG]2 [EG]2 [EG]>[FA] [EG]>[DF] | E4 A4 | %4
w: By~Robert~Lowry,~1864 * * * * *||||
 [DF]2 [DF]2 [DF]>[DE] [DF]>[EG] | [FA]4 [DF]2 [DF][EG] | [CE]2 [CE][DF] [EG]2 [DF][CE] | D8 | %8
w: ||||
 [GB]2 [GB]2 [Gd]>[Gc] [Gd]>[GB] | [FA]4 [DF]3 [DF] | [EG]>[^DF] [EG]>[DF] [EG]>[DF] [EG][CE] | %11
w: |||
 [DF]4 [FA]4 | [GB]>[GB] [GB]>[GB] [Gd]>c [Gd]>[GB] | [FA]4 [DF]2 [DF]2 | %14
w: |||
 [CE]2 [CE]>[DF] [EG]2 [DF][CE] | D8 |] %16
w: ||
V:2
 x8 | x8 | x8 | C8 | x8 | x8 | x8 | x8 | x8 | x8 | x8 | x8 | x8 | x8 | x8 | x8 |] %16
V:3
 [D,A,]2 [D,A,]2 [D,A,]>[D,A,] [D,A,]>[D,A,] | [D,D]4 [D,A,]4 | %2
 [A,,A,]2 [A,,A,]2 [A,,A,]>[A,,A,] [A,,A,]>[A,,A,] | [A,,A,]8 | %4
 [D,A,]2 [D,A,]2 [D,A,]>[D,A,] [D,A,]>[D,A,] | [D,D]4 [D,A,]2 [D,A,][D,A,] | %6
 [A,,A,]2 [A,,A,]2 [A,,A,]2 A,G, | [D,F,]8 | [G,D]2 [G,D]2 [G,B,]>[G,^A,] [G,B,]>[G,D] | %9
 [D,D]4 [D,A,]3 [D,A,] | [A,,A,]>[A,,A,] [A,,A,]>[A,,A,] [A,,A,]>[A,,A,] [A,,A,]2 | %11
 [D,A,]4 [D,D]4 | [G,D]>[G,D] [G,D]>[G,D] [G,B,]>^A, [G,B,]>[G,D] | [D,D]4 [D,A,]2 [D,A,]2 | %14
 [A,,A,]2 [A,,A,]>[A,,A,] [A,,A,]2 A,G, | [D,F,]8 |] %16
V:4
 x8 | x8 | x8 | x8 | x8 | x8 | z4 z2 A,,2 | x8 | x8 | x8 | x8 | x8 | x8 | x8 | z4 z2 A,,2 | x8 |] %16

